dist/svgs/unicons/line/paint-tool.svg

<svg xmlns="http://www.w3.org/2000/svg" data-name="Layer 1" viewBox="0 0 24 24"><path d="M18 1h-8a3 3 0 00-3 3H6a3 3 0 00-3 3v3a3 3 0 003 3h6a1 1 0 011 1v1a2 2 0 00-2 2v4a2 2 0 002 2h2a2 2 0 002-2v-4a2 2 0 00-2-2v-1a3 3 0 00-3-3H6a1 1 0 01-1-1V7a1 1 0 011-1h1a3 3 0 003 3h8a3 3 0 003-3V4a3 3 0 00-3-3zm-3 16v4h-2v-4zm4-11a1 1 0 01-1 1h-8a1 1 0 01-1-1V4a1 1 0 011-1h8a1 1 0 011 1z"/></svg>

<svg xmlns="http://www.w3.org/2000/svg" data-name="Layer 1" viewBox="0 0 24 24"><path d="M18,1H10A3,3,0,0,0,7,4H6A3,3,0,0,0,3,7v3a3,3,0,0,0,3,3h6a1,1,0,0,1,1,1v1a2,2,0,0,0-2,2v4a2,2,0,0,0,2,2h2a2,2,0,0,0,2-2V17a2,2,0,0,0-2-2V14a3,3,0,0,0-3-3H6a1,1,0,0,1-1-1V7A1,1,0,0,1,6,6H7a3,3,0,0,0,3,3h8a3,3,0,0,0,3-3V4A3,3,0,0,0,18,1ZM15,17v4H13V17ZM19,6a1,1,0,0,1-1,1H10A1,1,0,0,1,9,6V4a1,1,0,0,1,1-1h8a1,1,0,0,1,1,1Z"/></svg>
